!!!COM: Music21
!!!OTL: march_John-MacDonald-Of-Glencoe
!!!OMV: march_John-MacDonald-Of-Glencoe
**kern
*clefG2
*k[f#c#]
*M4/4
=1
16.eeLL
32ddJJk
=
32cc#KLL
16.eeJ
8aJ
8aL
8aaJ
2ryy
=
16.cc#LL
32aL
32cc#J
16.eeJJ
8ff#L
16.eeL
32ddJJk
2ryy
=
8cc#L
8eeJ
8aL
8cc#J
2ryy
=
32bKLL
16.g
16.b
32cc#JJk
8ddL
16.eeL
32ddJJk
2ryy
=
32cc#KLL
16.eeJ
8aJ
8aL
8aaJ
2ryy
!!linebreak:original
=
16.cc#LL
32aL
32cc#J
16.eeJJ
8ff#L
16.eeL
32ddJJk
2ryy
=
16.cc#LL
32ddK
16.ee
32aJJk
16.cc#LL
32bL
32ddJ
16.gJJ
2ryy
=
8b
8aL
8aJ
2ryy
8ryy
=||
*M4/4
16.eeLL
32ddJJk
=
32cc#KLL
16.eeJ
8aJ
8aL
8aaJ
2ryy
!!linebreak:original
=
16.cc#LL
32aL
32cc#J
16.eeJJ
8ff#L
16.eeL
32ddJJk
2ryy
=
8cc#L
8eeJ
8aL
8cc#J
2ryy
=
32bKLL
16.g
16.b
32cc#JJk
8ddL
16.eeL
32ddJJk
2ryy
=
32cc#KLL
16.eeJ
8aJ
8aL
8aaJ
2ryy
=
16.cc#LL
32aL
32cc#J
16.eeJJ
8ff#L
16.eeL
32ddJJk
2ryy
!!linebreak:original
=
16.cc#LL
32ddK
16.ee
32aJJk
16.cc#LL
32bL
32ddJ
16.gJJ
2ryy
=
8b
8aL
8aJ
2ryy
8ryy
=||
16.cc#LL
32ddJJk
2..ryy
=
8eeL
16.aL
32cc#JJk
8aaL
16.ggL
32ff#JJk
2ryy
=
8eeL
8aJ
8cc#L
8eeJ
2ryy
!!linebreak:original
=
8ddL
16.ff#L
32ddJJk
32cc#KLL
16.a
16.ee
32cc#JJk
2ryy
=
32bKLL
16.g
16.b
32cc#JJk
8ddL
16.cc#L
32ddJJk
2ryy
=
8eeL
16.aL
32cc#JJk
8aaL
16.ggL
32ff#JJk
2ryy
=
8eeL
8aJ
8cc#L
8ddJ
2ryy
=
16.cc#LL
32ddK
16.ee
32aJJk
16.cc#LL
32bL
32ddJ
16.gJJ
2ryy
!!linebreak:original
=
8b
8aL
8aJ
2ryy
8ryy
=||
16.cc#LL
32ddJJk
2..ryy
=
8eeL
16.aL
32cc#JJk
8aaL
16.ggL
32ff#JJk
2ryy
=
8eeL
8aJ
8cc#L
8eeJ
2ryy
=
8ddL
16.ff#L
32ddJJk
32cc#KLL
16.a
16.ee
32cc#JJk
2ryy
=
32bKLL
16.g
16.b
32cc#JJk
8ddL
16.cc#L
32ddJJk
2ryy
!!linebreak:original
=
8eeL
8aaJ
8cc#L
8eeJ
2ryy
=
16.aLL
32aK
16.a
32bJJk
8cc#L
8ddJ
2ryy
=
16.cc#LL
32ddK
16.ee
32aJJk
16.cc#LL
32bL
32ddJ
16.gJJ
2ryy
=
8b
8aL
8aJ
2ryy
8ryy
=||
16.eeLL
32ddJJk
2..ryy
!!linebreak:original
=
8cc#L
16.aL
32cc#JJk
32cc#KLL
16.ee
16.a
32cc#JJk
2ryy
=
8ddL
32ff#KL
16.aaJJ
8eeL
32cc#KL
16.aJJ
2ryy
=
8cc#L
16.aL
32cc#JJk
32cc#KLL
16.ee
16.a
32cc#JJk
2ryy
=
8bL
16.gL
32bJJk
32bKLL
16.ee
16.dd
32bJJk
2ryy
!!linebreak:original
=
8cc#L
16.aL
32cc#JJk
32cc#KLL
16.ee
16.a
32cc#JJk
2ryy
=
8ddL
32ff#KL
16.aaJJ
8eeL
32cc#KL
16.aJJ
2ryy
=
16.cc#LL
32ddK
16.ee
32aJJk
16.cc#LL
32bL
32ddJ
16.gJJ
2ryy
=
8bL
8aJ
8aL
16.eeL
32ddJJk
2ryy
!!linebreak:original
=
8cc#L
16.aL
32cc#JJk
32cc#KLL
16.ee
16.a
32cc#JJk
2ryy
=
8ddL
32ff#KL
16.aaJJ
8eeL
32cc#KL
16.aJJ
2ryy
=
32cc#KLL
16.ee
32aK
16.cc#JJ
8cc#L
32aKL
16.cc#JJ
2ryy
=
8bL
16.gL
32bJJk
32bKLL
16.ee
16.dd
32bJJk
2ryy
!!pagebreak:original
=
8cc#L
16.aL
32cc#JJk
32cc#KLL
16.ee
16.a
32cc#JJk
2ryy
=
8ddL
32ff#KL
16.aaJJ
8eeL
32cc#KL
16.aJJ
2ryy
=
16.cc#LL
32ddK
16.ee
32aJJk
16.cc#LL
32bL
32ddJ
16.gJJ
2ryy
=
8b
8aL
8aJ
2ryy
8ryy
=||
16.cc#LL
32ddJJk
2..ryy
!!linebreak:original
=
8eeL
8aaJ
8aaL
16.ggL
32ff#JJk
2ryy
=
8eeL
8aJ
8cc#L
8eeJ
2ryy
=
8ddL
16.ff#L
32ddJJk
32cc#KLL
16.a
16.ee
32cc#JJk
2ryy
=
32bKLL
16.g
16.b
32cc#JJk
2.ryy
=
8ddL
16.cc#L
32ddJJk
2.ryy
=
8eeL
8aaJ
8aaL
16.ggL
32ff#JJk
2ryy
!!linebreak:original
=
8eeL
8aJ
8cc#L
8ddJ
2ryy
=
16.cc#LL
32ddK
16.ee
32aJJk
16.cc#LL
32bL
32ddJ
16.gJJ
2ryy
=
8b
8aL
8aJ
2ryy
8ryy
=||
16.cc#LL
32ddJJk
2..ryy
=
8eeL
8aaJ
8aaL
16.ggL
32ff#JJk
2ryy
=
8eeL
8aJ
8cc#L
8eeJ
2ryy
!!linebreak:original
=
8ddL
16.ff#L
32ddJJk
32cc#KLL
16.a
16.ee
32cc#JJk
2ryy
=
32bKLL
16.g
16.b
32cc#JJk
2.ryy
=
16.ddLL
32ff#K
16.ee
32cc#JJk
2.ryy
=
16.ddLL
32cc#K
16.b
32cc#JJk
16.aLL
32bK
16.cc#
32ddJJk
2ryy
=
16.eeLL
32aL
32cc#J
16.eeJJ
8ff#L
16.eeL
32ddJJk
2ryy
!!linebreak:original
=
16.cc#LL
32ddK
16.ee
32aJJk
16.cc#LL
32bL
32ddJ
16.gJJ
2ryy
=
8b
8aL
8aJ
2ryy
8ryy
=||
*-
